app/content/themes/irontheme/images/general/growth.svg

<svg width="36" height="36" viewBox="0 0 36 36" fill="none" xmlns="http://www.w3.org/2000/svg">
<g clip-path="url(#clip0)">
<path d="M17.8799 35.2059C16.6259 35.2059 15.3725 34.9532 14.2117 34.4483L8.66136 32.0355C6.65336 31.1621 4.53024 30.6089 2.35105 30.391L0.528349 30.2088C0.228257 30.1789 0 29.9265 0 29.625V23.9075C0 23.7807 0.0412877 23.6571 0.117485 23.5558C0.253768 23.3735 3.52053 19.1057 8.51064 20.2161C11.3172 20.8398 13.5769 22.007 14.9784 22.8763C15.9958 23.5074 17.1884 23.8407 18.4274 23.8407H23.9778C24.9344 23.8407 25.7753 24.3469 26.2456 25.1062L31.0259 19.5988C31.9527 18.3612 33.4689 17.6033 35.0563 17.6033H35.4134C35.6118 17.6033 35.7964 17.7033 35.9045 17.8691C36.013 18.0349 36.0301 18.2447 35.9505 18.426L31.6271 28.2518C30.6818 30.4008 28.7571 32.0241 26.4789 32.5937L25.7182 32.7837L21.2934 34.5537C20.2045 34.9891 19.042 35.2059 17.8799 35.2059ZM1.17351 29.094L2.46786 29.2236C4.76823 29.4535 7.00951 30.0379 9.12962 30.9597L14.6796 33.3725C16.6312 34.2211 18.8819 34.2543 20.858 33.4638L25.3191 31.6794C25.3439 31.6696 25.3691 31.6616 25.395 31.6552L26.1942 31.4551C28.1233 30.9728 29.753 29.5985 30.5529 27.7792L34.4964 18.8171C33.4867 18.9658 32.5575 19.5099 31.9386 20.335L26.643 26.4382C26.6437 26.461 26.644 26.4835 26.644 26.5066C26.644 27.9766 25.448 29.1726 23.9781 29.1726H16.2341C15.2274 29.1726 14.2325 29.334 13.2775 29.6522L13.062 29.1051L12.8798 28.5475L12.9096 28.5378C13.9814 28.1806 15.1009 27.999 16.2341 27.999H23.9781C24.8008 27.999 25.4708 27.3294 25.4708 26.5063C25.4708 25.6832 24.8012 25.0136 23.9781 25.0136H18.4277C16.9699 25.0136 15.5635 24.6192 14.3604 23.873C13.0365 23.0516 10.9023 21.9496 8.25687 21.3611C4.47787 20.523 1.75859 23.4232 1.17385 24.115V29.094H1.17351Z" fill="url(#paint0_linear)"/>
<path d="M23.1042 17.4706C22.2019 17.4706 21.1902 17.192 20.0764 16.6351C19.9415 16.5673 19.8374 16.4498 19.7864 16.3078C19.7411 16.1806 18.6928 13.1652 20.3587 10.9354C21.5695 9.31441 23.846 8.58432 27.1289 8.76726C27.4283 8.78371 27.667 9.02371 27.6817 9.3238C27.6935 9.55676 27.9355 15.0554 25.1316 16.8862C24.5355 17.2759 23.8581 17.4706 23.1042 17.4706ZM20.8246 15.6935C22.3657 16.4162 23.5976 16.4871 24.4905 15.904C26.1531 14.8181 26.5126 11.5946 26.5213 9.91694C23.949 9.85417 22.1978 10.4339 21.2986 11.6373C20.2285 13.0702 20.6444 15.0413 20.8246 15.6935Z" fill="url(#paint1_linear)"/>
<path d="M14.1325 9.78415C13.0922 9.78415 11.8922 9.56127 10.8449 8.79426C9.06852 7.49252 8.25216 5.01425 8.41798 1.4286C8.43208 1.12884 8.66974 0.887828 8.96949 0.870038C9.22326 0.855604 15.2298 0.535037 17.2509 3.56884C18.1921 4.98102 18.1149 6.83057 17.0223 9.06716C16.9558 9.20311 16.8397 9.30817 16.6977 9.3602C16.6188 9.3894 15.5175 9.78415 14.1325 9.78415ZM16.4953 8.8097H16.501H16.4953ZM9.5727 2.02442C9.52201 4.89643 10.1823 6.85407 11.5381 7.84766C13.1614 9.03695 15.3778 8.53143 16.0747 8.32834C16.8719 6.59829 16.9394 5.217 16.2747 4.21938C15.0395 2.36512 11.4169 2.0026 9.5727 2.02442Z" fill="url(#paint2_linear)"/>
<path d="M18.7143 24.8074C18.6958 24.8074 18.6774 24.8064 18.6586 24.8047C18.3461 24.7752 18.1121 24.5049 18.1279 24.1911C18.1625 23.501 18.2215 22.8464 18.3018 22.2261C18.5458 18.0745 18.4199 8.40643 12.3073 5.73179C12.0106 5.60189 11.875 5.25614 12.0049 4.95907C12.1345 4.66268 12.4812 4.5274 12.7776 4.65697C16.3797 6.23295 18.6458 10.1566 19.3296 16.0037C19.391 16.5277 19.437 17.0443 19.4712 17.5475C21.0811 13.4794 23.544 12.0421 23.6906 11.9599C23.9726 11.8004 24.3304 11.9018 24.4895 12.1834C24.6476 12.4654 24.5483 12.8222 24.2673 12.9813C24.2052 13.0176 20.4286 15.284 19.4806 22.2734C19.4085 23.4691 19.3044 24.2314 19.2947 24.3012C19.2541 24.5939 19.004 24.8074 18.7143 24.8074Z" fill="url(#paint3_linear)"/>
</g>
<defs>
<linearGradient id="paint0_linear" x1="36" y1="26.4046" x2="1.532e-07" y2="26.4046" gradientUnits="userSpaceOnUse">
<stop stop-color="#2063B1"/>
<stop offset="1" stop-color="#3CBAFC"/>
</linearGradient>
<linearGradient id="paint1_linear" x1="27.6916" y1="13.1052" x2="19.4194" y2="13.1052" gradientUnits="userSpaceOnUse">
<stop stop-color="#2063B1"/>
<stop offset="1" stop-color="#3CBAFC"/>
</linearGradient>
<linearGradient id="paint2_linear" x1="17.9036" y1="5.31896" x2="8.39697" y2="5.31896" gradientUnits="userSpaceOnUse">
<stop stop-color="#2063B1"/>
<stop offset="1" stop-color="#3CBAFC"/>
</linearGradient>
<linearGradient id="paint3_linear" x1="24.5647" y1="14.7076" x2="11.9556" y2="14.7076" gradientUnits="userSpaceOnUse">
<stop stop-color="#2063B1"/>
<stop offset="1" stop-color="#3CBAFC"/>
</linearGradient>
<clipPath id="clip0">
<rect width="36" height="36" fill="white"/>
</clipPath>
</defs>
</svg>

<svg width="36" height="36" viewBox="0 0 36 36" fill="none" xmlns="http://www.w3.org/2000/svg"><g clip-path="url(#clip0)"><path d="M17.88 35.206a9.207 9.207 0 01-3.668-.758l-5.55-2.413a21.05 21.05 0 00-6.311-1.644l-1.823-.182A.586.586 0 010 29.625v-5.718c0-.126.041-.25.117-.351.137-.183 3.404-4.45 8.394-3.34 2.806.624 5.066 1.791 6.467 2.66a6.53 6.53 0 003.45.965h5.55c.956 0 1.797.506 2.268 1.265l4.78-5.507c.927-1.238 2.443-1.996 4.03-1.996h.357a.586.586 0 01.538.823l-4.324 9.826a7.703 7.703 0 01-5.148 4.342l-.76.19-4.426 1.77a9.203 9.203 0 01-3.413.652zM1.174 29.094l1.294.13c2.3.23 4.542.814 6.662 1.736l5.55 2.413a8.071 8.071 0 006.178.09l4.461-1.784a.593.593 0 01.076-.024l.8-.2a6.52 6.52 0 004.358-3.676l3.943-8.962a3.921 3.921 0 00-2.557 1.518l-5.296 6.103.001.069a2.669 2.669 0 01-2.666 2.666h-7.744a9.337 9.337 0 00-2.957.48l-.215-.548-.182-.558.03-.01A10.5 10.5 0 0116.234 28h7.744c.823 0 1.493-.67 1.493-1.493 0-.823-.67-1.492-1.493-1.492h-5.55a7.702 7.702 0 01-4.068-1.141c-1.323-.821-3.458-1.923-6.103-2.512-3.78-.838-6.498 2.062-7.083 2.754v4.979z" fill="url(#paint0_linear)"/><path d="M23.104 17.47c-.902 0-1.914-.278-3.028-.835a.59.59 0 01-.29-.327c-.045-.127-1.093-3.143.573-5.373 1.21-1.62 3.487-2.35 6.77-2.168.3.017.538.257.553.557.012.233.254 5.731-2.55 7.562a3.626 3.626 0 01-2.028.585zm-2.28-1.776c1.542.722 2.774.793 3.666.21 1.663-1.086 2.023-4.31 2.031-5.987-2.572-.063-4.323.517-5.222 1.72-1.07 1.433-.655 3.404-.474 4.056z" fill="url(#paint1_linear)"/><path d="M14.133 9.784c-1.04 0-2.24-.223-3.288-.99-1.776-1.301-2.593-3.78-2.427-7.365A.587.587 0 018.969.87c.254-.014 6.26-.335 8.282 2.699.941 1.412.864 3.262-.229 5.498a.586.586 0 01-.324.293c-.08.03-1.18.424-2.566.424zm2.362-.974h.006-.006zM9.573 2.024c-.051 2.872.61 4.83 1.965 5.824 1.623 1.189 3.84.683 4.537.48.797-1.73.864-3.111.2-4.109-1.235-1.854-4.858-2.216-6.702-2.195z" fill="url(#paint2_linear)"/><path d="M18.714 24.807a.587.587 0 01-.586-.616c.035-.69.093-1.345.174-1.965.244-4.151.118-13.82-5.995-16.494a.587.587 0 01.47-1.075c3.603 1.576 5.869 5.5 6.553 11.347.061.524.107 1.04.141 1.543 1.61-4.068 4.073-5.505 4.22-5.587a.587.587 0 01.576 1.021c-.062.037-3.838 2.303-4.786 9.292a28.157 28.157 0 01-.186 2.028.586.586 0 01-.58.506z" fill="url(#paint3_linear)"/></g><defs><linearGradient id="paint0_linear" x1="36" y1="26.405" x2="0" y2="26.405" gradientUnits="userSpaceOnUse"><stop stop-color="#2063B1"/><stop offset="1" stop-color="#3CBAFC"/></linearGradient><linearGradient id="paint1_linear" x1="27.692" y1="13.105" x2="19.419" y2="13.105" gradientUnits="userSpaceOnUse"><stop stop-color="#2063B1"/><stop offset="1" stop-color="#3CBAFC"/></linearGradient><linearGradient id="paint2_linear" x1="17.904" y1="5.319" x2="8.397" y2="5.319" gradientUnits="userSpaceOnUse"><stop stop-color="#2063B1"/><stop offset="1" stop-color="#3CBAFC"/></linearGradient><linearGradient id="paint3_linear" x1="24.565" y1="14.708" x2="11.956" y2="14.708" gradientUnits="userSpaceOnUse"><stop stop-color="#2063B1"/><stop offset="1" stop-color="#3CBAFC"/></linearGradient><clipPath id="clip0"><path fill="#fff" d="M0 0h36v36H0z"/></clipPath></defs></svg>
